src/lib/packages/icons/src/assets/filled/send-right.svg

<svg width="24" height="24" viewBox="0 0 24 24" fill="none" xmlns="http://www.w3.org/2000/svg">
<path d="M20.0191 10.273L8.59602 3.441C5.87502 1.813 2.80217 4.93798 4.47517 7.63198L6.63411 11.108C6.68911 11.196 6.78499 11.25 6.88899 11.25H13.0001C13.4101 11.25 13.7501 11.59 13.7501 12C13.7501 12.41 13.4101 12.75 13.0001 12.75H6.88801C6.78401 12.75 6.68813 12.804 6.63313 12.892L4.4742 16.368C2.8012 19.062 5.87405 22.187 8.59505 20.559L20.0181 13.727C21.3251 12.946 21.3251 11.054 20.0191 10.273Z" fill="currentColor"/>
</svg>

<svg xmlns="http://www.w3.org/2000/svg" width="24" height="24" fill="none"><path fill="currentColor" d="M20.02 10.273 8.595 3.441c-2.721-1.628-5.794 1.497-4.12 4.191l2.158 3.476a.3.3 0 0 0 .255.142H13c.41 0 .75.34.75.75s-.34.75-.75.75H6.888a.3.3 0 0 0-.255.142l-2.159 3.476c-1.673 2.694 1.4 5.819 4.121 4.191l11.423-6.832c1.307-.781 1.307-2.673.001-3.454Z"/></svg>
